!!!COM: Music21
!!!OTL: Festa Na Eira
!!!OMV: pezas_foliadas_festa-na-eira_festa-na-eira-partitura.musicxml
**kern
*part1
*staff1
*I"Bagpipes
*I'Bag
*clefG^2
*k[]
*M3/4
*MM200
=1
!LO:TX:a:t=[quarter]=200
4r
8ggL
8aaJ
8ggL
8ffJ
=||
4ee
4ff
4gg
=
4aa
4gg
4ee
=
4.ff
8ee
[4dd
=
4dd]
8aaL
8bbJ
8aaL
8ggJ
=
4ff
4gg
4aa
=
4bb
4aa
4ff
=
4.gg
8ff
[4ee
=
4ee]
8ggL
8aaJ
8ggL
8ffJ
!!linebreak:original
=
4ee
4ff
4gg
=
4aa
4gg
4ee
=
4.ff
8gg
[4aa
!!linebreak:original
=
4aa]
8bbL
8cccJ
8bbL
8aaJ
=
4gg
4ff
4gg
=
4aa
4.gg
8ff
=
[2.ee
=
4ee]
8ggL
8aaJ
8ggL
8ffJ
=||
4ee
4ff
4gg
=
4aa
4gg
4ee
=
4.ff
8ee
[4dd
=
4dd]
8aaL
8bbJ
8aaL
8ggJ
=
4ff
4gg
4aa
!!linebreak:original
=
4bb
4aa
4ff
=
4.gg
8ff
[4ee
=
4ee]
8ggL
8aaJ
8ggL
8ffJ
=
4ee
4ff
4gg
=
4aa
4gg
4ee
=
4.ff
8gg
[4aa
!!linebreak:original
=
4aa]
8bbL
8cccJ
8bbL
8aaJ
=
4gg
4ff
4gg
=
4aa
4.gg
8ff
=
[2.ee
=
2ee]
4ee
=||
2ff
4ee
=
4dd
4ee
4ff
=
4gg
4.aa
8ff
=
2gg
[4ee
=
4ee]
2gg^
=||
2aa
4gg
=
4ee
4ff
4gg
!!linebreak:original
=
4aa
4.bb
8gg
=
2aa
[4ff
=
4ff]
2ff^
=
2gg
4ff
=
4dd
4ee
4ff
=
4gg
4.aa
8ff
=
2gg
[4ee
=
4ee]
2gg^
=||
2aa
4gg
=
4ee
4ff
4gg
!!pagebreak:original
=
4aa
4.bb
8gg
=
2aa
[4ff
=
4ff]
2ff^
=
2gg
4ff
=
4dd
4ee
4ff
=
4aa
4.gg
8ff
=
[2.ee
=
4ee]
8ggL
8aaJ
8ggL
8ffJ
=||
[2.ee
=
2ee]
4gg
=
8ccc
8r
2r
==
*-
!!!system-decoration: s1,s2
